X: 191
T: 192. Gottlob, es geht nunmehr zu Ende
N: Derived from chor192.krn
C: Johann Sebastian Bach
%%abc-version 2.0
%%abcx-abcm2ps-target-version 5.9.1 (29 Sep 2008)
%%abc-creator hum2abc beta
%%abcx-conversion-date 2019/03/11 17:28:18
%%abc-edited-by Craig Stuart Sapp
%%humdrum-veritas 3430688417
%%humdrum-veritas-data 1763081187
%%
%%barnumbers 0
L: 1/4
M: 3/4
%%staves [1 2 3 4]
V: 1 clef=treble
V: 2 clef=treble
V: 3 clef=treble-8
V: 4 clef=bass
K: Bb
[V:1] dBd | 
[V:2] FFB- | 
[V:3] BBf | 
[V:4] B,,D,B,, | 
[V:1] e2d | 
[V:2] BAF | 
[V:3] ecB- | 
[V:4] C,F,B, | 
[V:1] c2B | 
[V:2] GF3/=E/ | 
[V:3] BAB | 
[V:4] =E,F,G, | 
[V:1] c2!fermata!c | 
[V:2] A2!fermata!A | 
[V:3] f2!fermata!f | 
[V:4] F,2!fermata!F, | 
[V:1] ddd | 
[V:2] BF/A/G/F/ | 
[V:3] fB/c/d | 
[V:4] B,,D,B,, | 
[V:1] G2A | 
[V:2] =E2F- | 
[V:3] c2c | 
[V:4] C,B,,A,, | 
[V:1] B2B | 
[V:2] F=E/D/E | 
[V:3] dBc | 
[V:4] G,,2C, | 
[V:1] !fermata!A3 :|]  
[V:2] !fermata!F3 :|]  
[V:3] !fermata!c3 :|]  
[V:4] !fermata!F,,3 :|]  
[V:1] Fcc | 
[V:2] CC=E | 
[V:3] AGG | 
[V:4] F,=E,C, | 
[V:1] c2d | 
[V:2] F2B- | 
[V:3] A2f | 
[V:4] F,_E,D, | 
[V:1] e2e | 
[V:2] BA/G/A | 
[V:3] gef | 
[V:4] C,2F, | 
[V:1] !fermata!d3 | 
[V:2] !fermata!B3 | 
[V:3] !fermata!f3 | 
[V:4] !fermata!B,,3 | 
[V:1] fff | 
[V:2] FB/A/B | 
[V:3] dB/c/d | 
[V:4] B,,D,B,, | 
[V:1] e3 | 
[V:2] GcA | 
[V:3] c2f | 
[V:4] C,A,,F,, | 
[V:1] ddc | 
[V:2] BB3/A/ | 
[V:3] f2f3//e// | 
[V:4] B,,D,F, | 
[V:1] !fermata!B3 |]  
[V:2] !fermata!F3 |]  
[V:3] !fermata!d3 |]  
[V:4] !fermata!B,,3 |]  



